assets/images/ico_history_dott.svg

<svg width="19" height="19" viewBox="0 0 19 19" fill="none" xmlns="http://www.w3.org/2000/svg">
<circle cx="9.5" cy="9.5" r="9.5" fill="#6F899C"/>
<path d="M8.84425 13C8.60871 12.9982 8.38327 12.913 8.216 12.7625L5.27107 10.0903C5.09751 9.93283 5 9.71923 5 9.49651C5 9.27379 5.09751 9.06019 5.27107 8.9027C5.44464 8.74521 5.68004 8.65673 5.9255 8.65673C6.17096 8.65673 6.40637 8.74521 6.57993 8.9027L8.77881 10.8979L12.3782 6.33743C12.4469 6.25087 12.5338 6.17745 12.6338 6.12135C12.7338 6.06526 12.8451 6.02759 12.9611 6.01049C13.0772 5.9934 13.1958 5.99722 13.3103 6.02173C13.4247 6.04624 13.5327 6.09097 13.6281 6.15335C13.7235 6.21573 13.8044 6.29456 13.8663 6.38532C13.9281 6.47608 13.9696 6.577 13.9884 6.68232C14.0073 6.78763 14.0031 6.89529 13.9761 6.99913C13.949 7.10297 13.8997 7.20097 13.831 7.28753L9.61648 12.62C9.54064 12.7153 9.44279 12.7944 9.32975 12.8518C9.21672 12.9093 9.09123 12.9436 8.96205 12.9525L8.84425 13Z" fill="white"/>
</svg>

<svg width="19" height="19" fill="none" xmlns="http://www.w3.org/2000/svg"><circle cx="9.5" cy="9.5" r="9.5" fill="#6F899C"/><path d="M8.844 13a.952.952 0 0 1-.628-.238L5.271 10.09A.802.802 0 0 1 5 9.497c0-.223.098-.437.271-.594a.976.976 0 0 1 .655-.246c.245 0 .48.088.654.246l2.199 1.995 3.6-4.56a.867.867 0 0 1 .255-.217.985.985 0 0 1 .994.032.851.851 0 0 1 .238.232.738.738 0 0 1 .11.614.782.782 0 0 1-.145.289L9.616 12.62a.867.867 0 0 1-.286.232.957.957 0 0 1-.368.1L8.844 13z" fill="#fff"/></svg>
